X:1
T:Title
%%score { 1 | ( 2 3 ) }
L:1/8
Q:1/4=114
M:6/4
K:F
V:1 treble nm="Grand Piano"
V:2 bass 
V:3 bass 
V:1
 A4 G2 F4 F2 | B4 A2 [EG]6 | c4 d2 c4 A2 | [EA]4 [EG]2 F6 | A4 G2 F4 F2 | B4 A2 [EG]6 | %6
w: Wm.~J.~Kirkpatrick * * *||||||
 c4 d2 c4 A2 | [EA]4 [EG]2 [CF]6 | [EG]4 [FA]2 [GB]6 | [GB]4 [FA]2 [EG]6 | A4 d2 c4 =B2 | [Ec]12 | %12
w: ||||||
 [CFA]4 [CGB]2 [CAc]4 [CFA]2 |[M:15/8] [B,DG]3- [B,DG] [C^FA]2 [DGB]3- [DGB]6 | %14
w: ||
[M:6/4] [CFA]4 [A,F]2 [CFA]4 [B,CG]2 | [F,A,CF]12 |] %16
w: ||
V:2
 [F,CF]4 [F,B,C]2 [F,A,C]4 [F,A,C]2 | [F,DF]4 [F,CF]2 [C,C]6 | %2
 [A,CF]4 [B,F]2 [A,CF]4[K:bass] [F,CF]2 | [C,C]4 [C,B,]2 [F,A,C]6 | %4
 [F,CF]4 [F,B,C]2 [F,A,C]4 [F,A,C]2 | [F,DF]4 [F,CF]2 [C,C]6 | %6
 [A,CF]4 [B,F]2 [A,CF]4[K:bass] [F,CF]2 | [C,C]4 [C,B,]2 [F,A,]6 | [C,C]4 [C,C]2 [C,C]6 | %9
 [C,C]4 [C,C]2 [C,C]6 | [F,CF]4 [F,A,F]2 [G,E]4 [G,F]2 | G,6 .B,6 | F,4 F,2 F,4 F,2 | %13
[M:15/8] B,,3- B,, A,,2 G,,3- G,,6 |[M:6/4] C,4 C,2 C,4 C,2 | F,,12 |] %16
V:3
 x12 | x12 | x10[K:bass] x2 | x12 | x12 | x12 | x10[K:bass] x2 | x12 | x12 | x12 | x12 | C,12 | %12
 x12 |[M:15/8] x15 |[M:6/4] x12 | x12 |] %16

